X:2740
T:Huntsmans Chorus. GHW.026
O:england
M:2/4
L:1/8
Q:200
S:George H.Watson,MS,Swanton Abbott,Norfolk,1850-1880
R:Air
A:Norfolk
N:The tune has two parts written as paired staves in the manuscript. Due
N:to the limitations of ABC I have written the first part out first,
N:followed by the second part. I have also kept the notes separated as
N:in
N:the MS. There is a pause  mark over the last minim.
K:G
P: First part
z2zA|d2 d/e/ f/g/|a2 f f|(ea) ea|f/g/f/e/ d A|d2 (d/e/) f/g/
|
a2f f|e1 ^g3/ g/|a2 zA|
d2 d/e/ f/g/|a2 f f|ea ea|fe d A|d2 d/e/ f/g/|a2f f|e1 ^g3/ g/
|a2 zA|
f2 f f|d2 d d|g2 g g|e2 e e|f2 f f|d2 d d|g2 g g|e2 z A|
f2 f f|g2 f f|e2f/e/ d/e/|f2 d A|f2 f f|g2 f f|(f/e/) (d/c/) f e
|
d2 z A|
A A/ A/ A A/ A/|A A/ A/ A A/ A/|d2 A f|d2 A f|(a/g/) e (a/g/
) e|(a/g/) e (a/g/) e|d2 A f|d2 A f|
(a/g/) e (a/g/) e|(a/g/) e (a/g/) e|f d/ f/ a2|f d/ f/ a2|1
f d/ d/ d f|e2 z:|2 f d/d/ d d/d/| d4||
P: 2nd Part
z2z A|F2 F/A/ d/e/|f2 d d |c2 c c|d/e/d/c/ d A|F2 F/A/ d/e/
|f2 d d |c2 d3/ d/|a2 z A|
F2 F/A/ d/e/|f2 d d |c2 c c|dc d A|F2 F/A/ d/e/
|f2 d d |c2 d3/ d/|c2 z A|
A2 A A |B2 B B|B2 B B|c2 c A|A2 A A|B2 B B|B2 B B|c2 z c|
A2 A A|B2 A d|c2 (d/c/) (B/c/)|dA F A|A2 A A|B2 A d|c2 c c|d2 z A|
A A/ A/ A A/ A/|A A/ A/ A A/ A/|F2 F A|F2 F A|E G E G|E G E G|F2
F A|F2 F A|
E G E G|E G E G|F d/ d/ c2|d d/ d/ c2|1 d d/ d/ d d|c2 z:|2 d F/F
/ F F/F/|F4||
